svg/aws-ec2-m5zn.svg

<?xml version="1.0" encoding="UTF-8"?>
<svg xmlns="http://www.w3.org/2000/svg" xmlns:xlink="http://www.w3.org/1999/xlink" width="32" height="32" viewBox="0 0 32 32">
<path fill-rule="evenodd" fill="rgb(83.137255%, 35.686275%, 2.745098%)" fill-opacity="1" d="M 6 26 L 26 26 L 26 6 L 6 6 Z M 30.667969 8.667969 L 30.667969 7.332031 L 27.332031 7.332031 L 27.332031 5.332031 C 27.332031 4.964844 27.035156 4.667969 26.667969 4.667969 L 24.667969 4.667969 L 24.667969 1.332031 L 23.332031 1.332031 L 23.332031 4.667969 L 20.667969 4.667969 L 20.667969 1.332031 L 19.332031 1.332031 L 19.332031 4.667969 L 16.667969 4.667969 L 16.667969 1.332031 L 15.332031 1.332031 L 15.332031 4.667969 L 12.667969 4.667969 L 12.667969 1.332031 L 11.332031 1.332031 L 11.332031 4.667969 L 8.667969 4.667969 L 8.667969 1.332031 L 7.332031 1.332031 L 7.332031 4.667969 L 5.332031 4.667969 C 4.964844 4.667969 4.667969 4.964844 4.667969 5.332031 L 4.667969 7.332031 L 1.332031 7.332031 L 1.332031 8.667969 L 4.667969 8.667969 L 4.667969 11.332031 L 1.332031 11.332031 L 1.332031 12.667969 L 4.667969 12.667969 L 4.667969 15.332031 L 1.332031 15.332031 L 1.332031 16.667969 L 4.667969 16.667969 L 4.667969 19.332031 L 1.332031 19.332031 L 1.332031 20.667969 L 4.667969 20.667969 L 4.667969 23.332031 L 1.332031 23.332031 L 1.332031 24.667969 L 4.667969 24.667969 L 4.667969 26.667969 C 4.667969 27.035156 4.964844 27.332031 5.332031 27.332031 L 7.332031 27.332031 L 7.332031 30.667969 L 8.667969 30.667969 L 8.667969 27.332031 L 11.332031 27.332031 L 11.332031 30.667969 L 12.667969 30.667969 L 12.667969 27.332031 L 15.332031 27.332031 L 15.332031 30.667969 L 16.667969 30.667969 L 16.667969 27.332031 L 19.332031 27.332031 L 19.332031 30.667969 L 20.667969 30.667969 L 20.667969 27.332031 L 23.332031 27.332031 L 23.332031 30.667969 L 24.667969 30.667969 L 24.667969 27.332031 L 26.667969 27.332031 C 27.035156 27.332031 27.332031 27.035156 27.332031 26.667969 L 27.332031 24.667969 L 30.667969 24.667969 L 30.667969 23.332031 L 27.332031 23.332031 L 27.332031 20.667969 L 30.667969 20.667969 L 30.667969 19.332031 L 27.332031 19.332031 L 27.332031 16.667969 L 30.667969 16.667969 L 30.667969 15.332031 L 27.332031 15.332031 L 27.332031 12.667969 L 30.667969 12.667969 L 30.667969 11.332031 L 27.332031 11.332031 L 27.332031 8.667969 Z M 23.433594 18.484375 L 23.433594 16.015625 C 23.433594 15.773438 23.382812 15.601562 23.285156 15.488281 C 23.1875 15.378906 23.03125 15.324219 22.816406 15.324219 C 22.492188 15.324219 22.164062 15.433594 21.824219 15.648438 L 21.824219 18.484375 L 20.960938 18.484375 L 20.960938 14.753906 L 21.679688 14.753906 L 21.765625 15.164062 C 22.226562 14.816406 22.707031 14.644531 23.207031 14.644531 C 23.5625 14.644531 23.832031 14.738281 24.019531 14.925781 C 24.203125 15.113281 24.296875 15.386719 24.296875 15.742188 L 24.296875 18.484375 Z M 17.292969 18.484375 L 17.292969 17.847656 L 19.375 15.414062 L 17.367188 15.414062 L 17.367188 14.753906 L 20.308594 14.753906 L 20.308594 15.390625 L 18.226562 17.824219 L 20.328125 17.824219 L 20.328125 18.484375 Z M 13.363281 17.613281 C 13.898438 17.792969 14.359375 17.882812 14.75 17.882812 C 15.472656 17.882812 15.835938 17.570312 15.835938 16.945312 C 15.835938 16.644531 15.742188 16.421875 15.5625 16.28125 C 15.378906 16.144531 15.089844 16.074219 14.691406 16.074219 C 14.394531 16.074219 14.023438 16.097656 13.574219 16.148438 L 13.574219 15.589844 L 13.714844 13.402344 L 16.472656 13.402344 L 16.472656 14.101562 L 14.53125 14.101562 L 14.449219 15.457031 C 14.648438 15.417969 14.859375 15.398438 15.085938 15.398438 C 15.589844 15.398438 15.988281 15.535156 16.285156 15.808594 C 16.574219 16.082031 16.722656 16.457031 16.722656 16.929688 C 16.722656 17.441406 16.546875 17.84375 16.195312 18.144531 C 15.84375 18.445312 15.367188 18.597656 14.769531 18.597656 C 14.28125 18.597656 13.8125 18.496094 13.363281 18.300781 Z M 11.925781 18.484375 L 11.925781 14.679688 L 10.605469 17.210938 L 9.800781 17.210938 L 8.523438 14.695312 L 8.523438 18.484375 L 7.703125 18.484375 L 7.703125 13.402344 L 8.699219 13.402344 L 10.226562 16.433594 L 11.78125 13.402344 L 12.746094 13.402344 L 12.746094 18.484375 Z M 11.925781 18.484375 "/>
</svg>

<svg role="img" viewBox="0 0 32 32" xmlns="http://www.w3.org/2000/svg"><path d="M6 26h20V6H6ZM30.668 8.668V7.332h-3.336v-2a.664.664 0 0 0-.664-.664h-2V1.332h-1.336v3.336h-2.664V1.332h-1.336v3.336h-2.664V1.332h-1.336v3.336h-2.664V1.332h-1.336v3.336H8.668V1.332H7.332v3.336h-2a.664.664 0 0 0-.664.664v2H1.332v1.336h3.336v2.664H1.332v1.336h3.336v2.664H1.332v1.336h3.336v2.664H1.332v1.336h3.336v2.664H1.332v1.336h3.336v2c0 .367.297.664.664.664h2v3.336h1.336v-3.336h2.664v3.336h1.336v-3.336h2.664v3.336h1.336v-3.336h2.664v3.336h1.336v-3.336h2.664v3.336h1.336v-3.336h2a.664.664 0 0 0 .664-.664v-2h3.336v-1.336h-3.336v-2.664h3.336v-1.336h-3.336v-2.664h3.336v-1.336h-3.336v-2.664h3.336v-1.336h-3.336V8.668Zm-7.234 9.816v-2.468c0-.243-.051-.414-.149-.528q-.147-.164-.469-.164c-.324 0-.652.11-.992.324v2.836h-.863v-3.73h.719l.086.41q.69-.521 1.441-.52.532 0 .813.282.276.281.277.816v2.742Zm-6.141 0v-.636l2.082-2.434h-2.008v-.66h2.942v.637l-2.082 2.433h2.101v.66Zm-3.93-.87q.802.269 1.387.269 1.085 0 1.086-.938c0-.3-.094-.523-.274-.664q-.274-.206-.87-.207-.445 0-1.118.074v-.558l.14-2.188h2.759v.7H14.53l-.082 1.355q.301-.059.637-.059.76 0 1.2.41c.288.274.437.649.437 1.122q0 .765-.528 1.215t-1.425.453c-.489 0-.957-.102-1.407-.297Zm-1.437.87V14.68l-1.32 2.53H9.8l-1.278-2.515v3.79h-.82v-5.083H8.7l1.528 3.032 1.554-3.032h.965v5.082Zm0 0" fill="rgb(83.137256%, 35.686275%, 2.745098%)" fill-rule="evenodd"/></svg>
